X:251
T:Johnnie's Jig 
C:Joe Buchanan's Scottish Tome - Page 304.1
I:304 1
C:Fergie MacDonald
R:Jig
Z:Carl Allison
L:1/8
M:6/8
K:C
"D7" D | "G" GGG "D" BGB | "G" ded "D" BGB | "G"gfg "Em" dBG | "Am" BAB "D7" GED |
"G" DGG "C"EGG | "G" DGG "Bm" dBd | "Em" gfg "Am" edB | "D7"AGE "G" G2 :|
"D" D | "G" Bdd "D" dBd | "C" ege "G" dBd | "G"gfg "Em" dBG | "Am" BAB "D7" GED |
"G" Bdd "D"dBd | "G" ege "D" dBd | "C" gfg "G" edB | "D7"AGE "G" G2 :|

